!!!OTL: Wuzhuang baojiaxiang
!!!ARE: Asia, China,ÿJiangsu Xinghua
!! III, 463
!!!SCT: C2026
!!!YEM: Copyright 1995, estate of Helmut Schaffrath.
**kern
*ICvox
*Ivox
*M2/4
*k[f#c#g#]
*A:
{8f#
8e
8f#
8a
=1
8b
8cc#
8b
8a
=2
8f#
8e
8f#
8a
=3
2b}
=4
{8b
8b
8a
8b
=5
8cc#
8ee
8b
8a
=6
8f#
16e
16e
8f#
8a
=7
8b
8cc#
8b
8a
=8
8f#
16e
16f#
8a
8c#
=9
4.e}
{8a
=10
8f#
16e
16f#
8a
8c#
=11
2e}
==
!!!AGN: Xiaodiao, Shichao diao
!!!AMT: simple duple
!!!AIN: vox
!!!EED: Helmut Schaffrath
!!!EEV: 1.0
*-
